src/icons/IconDown/IconDown_size_xs.svg

<!-- ##color:mono ##group:direction -->
<svg viewBox="0 0 12 12" xmlns="http://www.w3.org/2000/svg">
  <path
    d="M4.89819 9.1875L2.25178 6.54109L1.54468 7.2482L5.39823 11.1018L9.25178 7.2482L8.54468 6.54109L5.89819 9.18758V1.89819H4.89819V9.1875Z"
  />
</svg>

<!-- ##color:mono ##group:direction -->
<svg viewBox="0 0 12 12" xmlns="http://www.w3.org/2000/svg">
  <path
    d="M4.898 9.188L2.252 6.54l-.707.707 3.853 3.854 3.854-3.854-.707-.707-2.647 2.647v-7.29h-1v7.29z"
  />
</svg>
